images/icons/client6.svg

<svg width="106" height="60" viewBox="0 0 106 60" fill="none" xmlns="http://www.w3.org/2000/svg">
<path d="M53.425 27.4082C52.9819 26.8184 52.7699 26.1213 52.8203 25.4196V22.5364C52.8203 21.6526 53.0207 20.9809 53.4216 20.5214C53.8224 20.0619 54.511 19.8331 55.4871 19.8351C56.4044 19.8351 57.0555 20.0306 57.4405 20.4217C57.8605 20.9207 58.0648 21.5309 58.018 22.1463V22.8239H56.3772V22.1375C56.383 21.9129 56.3671 21.6882 56.3296 21.4659C56.306 21.3138 56.2234 21.1732 56.0952 21.067C55.9267 20.9525 55.7145 20.897 55.5007 20.9115C55.2759 20.897 55.0529 20.9556 54.8756 21.0758C54.7327 21.1935 54.6374 21.3477 54.6038 21.5157C54.5567 21.7511 54.5351 21.9897 54.5393 22.2285V25.7276C54.5134 26.0652 54.5858 26.403 54.7499 26.7102C54.8315 26.8141 54.9448 26.8965 55.0774 26.9483C55.2099 27.0001 55.3564 27.0192 55.5007 27.0035C55.7109 27.0184 55.9195 26.9615 56.0816 26.8451C56.2153 26.7305 56.3013 26.581 56.3262 26.4198C56.3645 26.1877 56.3816 25.9533 56.3772 25.7188V25.009H58.018V25.6572C58.0641 26.2988 57.8648 26.9356 57.4507 27.4698C57.0736 27.8981 56.4315 28.1122 55.4871 28.1122C54.5427 28.1122 53.8292 27.8834 53.425 27.4082Z" fill="#AFB1B8"/>
<path d="M60.2569 27.4376C59.8425 26.9888 59.6353 26.3347 59.6353 25.4695V22.4367C59.6353 21.5803 59.8425 20.9321 60.2569 20.4921C60.6714 20.0521 61.3644 19.8331 62.336 19.8351C63.3008 19.8351 63.9904 20.0541 64.4049 20.4921C64.8193 20.9321 65.03 21.5803 65.03 22.4367V25.4695C65.03 26.3259 64.8193 26.9829 64.3981 27.4346C63.9768 27.8863 63.2906 28.1122 62.336 28.1122C61.3814 28.1122 60.6748 27.8834 60.2569 27.4376ZM63.1004 26.7102C63.2488 26.4291 63.3164 26.1212 63.2974 25.8127V22.0994C63.3165 21.7969 63.25 21.4949 63.1038 21.2195C63.0205 21.1134 62.9044 21.0296 62.7686 20.9777C62.6329 20.9259 62.483 20.908 62.336 20.9262C62.1886 20.9085 62.0384 20.9265 61.9022 20.9783C61.766 21.0301 61.6492 21.1136 61.5648 21.2195C61.4155 21.4941 61.3477 21.7965 61.3678 22.0994V25.8303C61.3472 26.1389 61.4148 26.4471 61.5648 26.7278C61.6605 26.8224 61.7785 26.8982 61.9109 26.9502C62.0434 27.0021 62.1872 27.029 62.3326 27.029C62.4781 27.029 62.6219 27.0021 62.7543 26.9502C62.8867 26.8982 63.0047 26.8224 63.1004 26.7278V26.7102Z" fill="#AFB1B8"/>
<path d="M67.0035 19.9236H68.7701L70.0984 25.5192L71.4573 19.9236H73.1763L73.3496 28.0003H72.079L71.9431 22.3871L70.6318 28.0003H69.6126L68.2537 22.3665L68.128 28.0003H66.8439L67.0035 19.9236Z" fill="#AFB1B8"/>
<path d="M75.3303 19.9236H78.082C79.6673 19.9236 80.46 20.688 80.46 22.217C80.46 23.6814 79.6254 24.4126 77.9563 24.4106H77.0187V28.0003H75.3201L75.3303 19.9236ZM77.6811 23.3754C77.8489 23.3938 78.0194 23.3805 78.1807 23.3364C78.342 23.2924 78.4903 23.2186 78.6153 23.1203C78.8101 22.8475 78.896 22.5271 78.8599 22.2082C78.8688 21.9618 78.8414 21.7154 78.7784 21.475C78.7542 21.3947 78.7117 21.3194 78.6533 21.2534C78.595 21.1874 78.522 21.1322 78.4387 21.0908C78.2029 20.9932 77.9422 20.9488 77.6811 20.9618H77.0221V23.3754H77.6811Z" fill="#AFB1B8"/>
<path d="M82.9094 19.9236H84.7337L86.6056 28.0003H85.0225L84.6522 26.138H83.0249L82.6445 28.0003H81.0376L82.9094 19.9236ZM84.4687 25.2025L83.8335 21.8123L83.1982 25.2025H84.4687Z" fill="#AFB1B8"/>
<path d="M88.1173 19.9236H89.3063L91.5825 24.5309V19.9236H92.9923V28.0003H91.861L89.5713 23.1906V28.0003H88.1139L88.1173 19.9236Z" fill="#AFB1B8"/>
<path d="M96.2945 24.9208L94.4022 19.9349H95.9955L97.1506 23.1376L98.2343 19.9349H99.7936L97.9251 24.9208V28.0003H96.2945V24.9208Z" fill="#AFB1B8"/>
<path d="M56.0477 31.5316V31.954H54.6617V35.2359H54.0807V31.954H52.6879V31.5316H56.0477Z" fill="#AFB1B8"/>
<path d="M60.3927 35.2362H59.9442C59.8987 35.2386 59.8538 35.2261 59.8185 35.201C59.7846 35.1795 59.7587 35.15 59.7438 35.116L59.3429 34.2361H57.4201L57.0192 35.116C57.0078 35.1528 56.9869 35.1868 56.958 35.2157C56.9225 35.2402 56.8778 35.2527 56.8324 35.2509H56.3839L58.0825 31.5468H58.6737L60.3927 35.2362ZM57.5797 33.8607H59.1833L58.5038 32.3533C58.4537 32.2393 58.4117 32.1227 58.3781 32.0043C58.3543 32.0747 58.3339 32.1421 58.3136 32.2008L58.2524 32.3562L57.5797 33.8607Z" fill="#AFB1B8"/>
<path d="M63.3212 34.8724C63.4275 34.8772 63.5341 34.8772 63.6405 34.8724C63.7323 34.8642 63.8232 34.8495 63.9123 34.8284C63.9955 34.8107 64.0772 34.7882 64.1569 34.7609C64.2316 34.7345 64.3064 34.7022 64.3845 34.67V33.8369H63.705C63.6882 33.8378 63.6714 33.8356 63.6556 33.8305C63.6399 33.8255 63.6255 33.8177 63.6133 33.8076C63.6022 33.7993 63.5933 33.7889 63.5875 33.7772C63.5816 33.7655 63.5788 33.7529 63.5794 33.7401V33.4556H64.8975V34.8753C64.7899 34.9417 64.6763 35.0006 64.5577 35.0513C64.4366 35.1029 64.3104 35.1451 64.1807 35.1774C64.0417 35.2127 63.8997 35.2382 63.756 35.2537C63.5913 35.2695 63.4257 35.2773 63.26 35.2771C62.967 35.2793 62.6763 35.2325 62.4039 35.1393C62.1496 35.051 61.9185 34.9193 61.7245 34.7521C61.5353 34.5832 61.3864 34.3839 61.2862 34.1655C61.1792 33.9199 61.1261 33.6593 61.13 33.397C61.1264 33.133 61.1782 32.8706 61.2828 32.6226C61.3805 32.4031 61.5297 32.2033 61.7211 32.036C61.9149 31.8693 62.1461 31.7386 62.4005 31.6517C62.6914 31.5572 63.0002 31.5105 63.311 31.5138C63.4691 31.5137 63.627 31.5245 63.7832 31.5461C63.9213 31.5655 64.0567 31.597 64.1875 31.64C64.3063 31.6785 64.4202 31.7277 64.5272 31.7866C64.6313 31.8445 64.7301 31.9092 64.8227 31.9802L64.6597 32.209C64.6469 32.2299 64.6279 32.2475 64.6046 32.2598C64.5813 32.2722 64.5545 32.279 64.5272 32.2794C64.4896 32.2784 64.4531 32.2682 64.4219 32.2501C64.3709 32.2266 64.3165 32.1973 64.2554 32.1621C64.1832 32.123 64.107 32.0896 64.0278 32.0624C63.9265 32.0273 63.822 31.9998 63.7152 31.9802C63.5729 31.9576 63.4285 31.9468 63.2838 31.948C63.0597 31.9458 62.8371 31.9807 62.6281 32.0506C62.4391 32.1161 62.2687 32.2162 62.1287 32.3439C61.9879 32.4771 61.8804 32.6339 61.8128 32.8045C61.661 33.2056 61.661 33.6381 61.8128 34.0393C61.8871 34.2135 62.0029 34.3724 62.1525 34.5057C62.2918 34.6328 62.4609 34.7328 62.6485 34.799C62.8645 34.8631 63.0935 34.888 63.3212 34.8724Z" fill="#AFB1B8"/>
<path d="M68.7363 34.8136H70.5912V35.2359H68.1689V31.5316H68.7499L68.7363 34.8136Z" fill="#AFB1B8"/>
<path d="M72.5208 35.2359H71.9398V31.5316H72.5208V35.2359Z" fill="#AFB1B8"/>
<path d="M74.6814 31.5492C74.7159 31.5662 74.746 31.5892 74.7697 31.6167L77.253 34.409C77.2497 34.3651 77.2497 34.321 77.253 34.277C77.253 34.236 77.253 34.1949 77.253 34.1568V31.517H77.7592V35.2362H77.4671C77.4238 35.2392 77.3804 35.2321 77.3414 35.2156C77.3061 35.1972 77.275 35.1733 77.2496 35.1452L74.7697 32.3558C74.7697 32.3998 74.7697 32.4409 74.7697 32.482C74.7697 32.523 74.7697 32.5612 74.7697 32.5964V35.2362H74.2839V31.5316H74.5863C74.6191 31.5317 74.6515 31.5377 74.6814 31.5492Z" fill="#AFB1B8"/>
<path d="M82.0364 31.5316V31.9393H79.9777V33.1624H81.6457V33.5554H79.9777V34.8195H82.0364V35.2272H79.3798V31.5316H82.0364Z" fill="#AFB1B8"/>
<path d="M21.1618 8.65551L46.9568 14.9788V37.1368L21.1618 30.8164V8.65551ZM19.5073 6.76672V31.8928L48.6079 39.0285V13.9054L19.5073 6.76672Z" fill="#AFB1B8"/>
<path d="M35.1039 50.6922L6 43.5505V18.4271L35.1039 25.5659V50.6922Z" fill="#AFB1B8"/>
<path d="M19.9897 8.37099L45.4484 14.615L34.6215 23.9649L9.1594 17.7179L19.9897 8.37099ZM19.5073 6.76672L6 18.4277L35.1039 25.5662L48.6078 13.9053L19.5073 6.76672Z" fill="#AFB1B8"/>
<path d="M36.7415 49.2788L48.6078 39.0315L36.7415 36.1193V49.2788Z" fill="#AFB1B8"/>
</svg>

<svg xmlns="http://www.w3.org/2000/svg" fill="none" viewBox="0 0 106 60">
  <path fill="#AFB1B8" d="M53.425 27.408a2.947 2.947 0 0 1-.605-1.988v-2.884c0-.883.2-1.555.602-2.015.4-.46 1.089-.688 2.065-.686.917 0 1.569.196 1.953.587.42.499.625 1.109.578 1.724v.678h-1.64v-.687c.005-.224-.01-.449-.048-.671a.65.65 0 0 0-.235-.399.95.95 0 0 0-.594-.155 1.005 1.005 0 0 0-.625.164.768.768 0 0 0-.272.44 3.332 3.332 0 0 0-.065.713v3.499c-.026.337.047.675.21.982a.77.77 0 0 0 .328.238.9.9 0 0 0 .424.055.893.893 0 0 0 .58-.158.704.704 0 0 0 .245-.425c.038-.232.056-.467.051-.701v-.71h1.641v.648a2.64 2.64 0 0 1-.567 1.813c-.377.428-1.02.642-1.964.642s-1.658-.229-2.062-.704ZM60.257 27.438c-.415-.45-.622-1.103-.622-1.968v-3.033c0-.857.207-1.505.622-1.945.414-.44 1.107-.659 2.079-.657.965 0 1.654.22 2.069.657.414.44.625 1.088.625 1.945v3.032c0 .857-.21 1.514-.632 1.966-.421.451-1.107.677-2.062.677-.955 0-1.661-.229-2.08-.674Zm2.843-.728c.149-.28.216-.589.197-.897v-3.714a1.65 1.65 0 0 0-.193-.88.776.776 0 0 0-.335-.241.907.907 0 0 0-.433-.052.918.918 0 0 0-.434.052.786.786 0 0 0-.337.241c-.15.275-.217.578-.197.88v3.731c-.02.309.047.617.197.898.095.094.214.17.346.222a1.158 1.158 0 0 0 .843 0c.133-.052.25-.128.346-.222v-.018ZM67.004 19.924h1.766l1.328 5.595 1.36-5.595h1.718L73.35 28h-1.271l-.136-5.613L70.632 28h-1.02l-1.358-5.634L68.128 28h-1.284l.16-8.076ZM75.33 19.924h2.752c1.585 0 2.378.764 2.378 2.293 0 1.464-.835 2.196-2.504 2.194h-.937V28H75.32l.01-8.077Zm2.351 3.451c.168.019.338.006.5-.039.16-.044.31-.117.434-.216.195-.273.281-.593.245-.912a2.525 2.525 0 0 0-.082-.733.594.594 0 0 0-.125-.222.703.703 0 0 0-.214-.162 1.759 1.759 0 0 0-.758-.13h-.659v2.414h.66ZM82.91 19.924h1.824L86.606 28h-1.584l-.37-1.862h-1.627L82.645 28h-1.607l1.871-8.076Zm1.559 5.279-.636-3.39-.635 3.39h1.27ZM88.117 19.924h1.19l2.275 4.607v-4.607h1.41V28h-1.131l-2.29-4.81V28h-1.457l.003-8.076ZM96.294 24.92l-1.892-4.985h1.594l1.155 3.203 1.083-3.203h1.56l-1.869 4.986V28h-1.63v-3.08ZM56.048 31.532v.422h-1.386v3.282h-.581v-3.282h-1.393v-.422h3.36ZM60.393 35.236h-.449a.2.2 0 0 1-.126-.035.194.194 0 0 1-.074-.085l-.401-.88H57.42l-.4.88a.243.243 0 0 1-.062.1.208.208 0 0 1-.126.035h-.448l1.699-3.704h.59l1.72 3.69Zm-2.813-1.375h1.603l-.68-1.508a2.699 2.699 0 0 1-.125-.349c-.024.07-.044.138-.064.197l-.062.155-.672 1.505ZM63.321 34.872c.107.005.213.005.32 0 .091-.008.182-.023.271-.044.083-.017.165-.04.245-.067.075-.027.15-.059.227-.091v-.833h-.679a.137.137 0 0 1-.092-.03.086.086 0 0 1-.026-.03.074.074 0 0 1-.008-.037v-.284h1.318v1.42a2.578 2.578 0 0 1-.716.301c-.14.036-.281.061-.425.077-.165.016-.33.023-.496.023a2.59 2.59 0 0 1-.856-.138 2.09 2.09 0 0 1-.68-.387 1.79 1.79 0 0 1-.438-.587 1.851 1.851 0 0 1-.156-.768 1.92 1.92 0 0 1 .153-.774c.097-.22.247-.42.438-.587.194-.167.425-.297.68-.384.29-.095.6-.142.91-.138.158 0 .316.01.472.032.138.02.274.051.404.094.12.038.233.088.34.147.104.058.203.122.296.193l-.163.229a.142.142 0 0 1-.055.05.17.17 0 0 1-.078.02.222.222 0 0 1-.105-.029 2.113 2.113 0 0 1-.167-.088 1.504 1.504 0 0 0-.227-.1 2.127 2.127 0 0 0-.313-.082 2.614 2.614 0 0 0-.431-.032 2.009 2.009 0 0 0-.656.103c-.189.065-.36.165-.5.293a1.29 1.29 0 0 0-.315.46 1.732 1.732 0 0 0 0 1.235c.074.175.19.333.34.467.139.127.308.227.495.293.216.064.445.089.673.073ZM68.736 34.814h1.855v.422H68.17v-3.704h.58l-.013 3.282ZM72.52 35.236h-.58v-3.704h.58v3.704ZM74.681 31.55a.28.28 0 0 1 .089.067l2.483 2.792a.881.881 0 0 1 0-.132V31.517h.506v3.72h-.292a.275.275 0 0 1-.126-.021.328.328 0 0 1-.091-.07l-2.48-2.79v2.88h-.486v-3.704h.302c.033 0 .066.006.095.017ZM82.036 31.532v.407h-2.058v1.223h1.668v.393h-1.668v1.264h2.058v.408H79.38v-3.695h2.656ZM21.162 8.656l25.795 6.323v22.158l-25.795-6.32V8.655Zm-1.655-1.89v25.127l29.1 7.136V13.905l-29.1-7.138Z"/>
  <path fill="#AFB1B8" d="M35.104 50.692 6 43.55V18.427l29.104 7.139v25.126Z"/>
  <path fill="#AFB1B8" d="m19.99 8.371 25.458 6.244-10.827 9.35L9.16 17.718 19.99 8.37Zm-.483-1.604L6 18.427l29.104 7.14 13.504-11.662-29.1-7.138ZM36.741 49.279 48.608 39.03 36.74 36.12v13.16Z"/>
</svg>
